src/lib/packages/icons/src/assets/filled/video-circle.svg

<svg width="24" height="24" viewBox="0 0 24 24" fill="none" xmlns="http://www.w3.org/2000/svg">
<path d="M12 2C6.477 2 2 6.477 2 12C2 17.523 6.477 22 12 22C17.523 22 22 17.523 22 12C22 6.477 17.523 2 12 2ZM17.5 14.4419C17.5 14.7879 17.1001 14.9799 16.8301 14.7639L14.75 13.1001V14.2C14.75 15.3 14.2001 15.8501 13.1001 15.8501H8.1499C7.0499 15.8501 6.5 15.3 6.5 14.2V9.80005C6.5 8.70005 7.0499 8.1499 8.1499 8.1499H13.1001C14.2001 8.1499 14.75 8.70005 14.75 9.80005V10.8999L16.8301 9.23608C17.1001 9.02008 17.5 9.21211 17.5 9.55811V14.4419Z" fill="currentColor"/>
</svg>

<svg xmlns="http://www.w3.org/2000/svg" width="24" height="24" fill="none"><path fill="currentColor" d="M12 2C6.477 2 2 6.477 2 12s4.477 10 10 10 10-4.477 10-10S17.523 2 12 2Zm5.5 12.442c0 .346-.4.538-.67.322L14.75 13.1v1.1c0 1.1-.55 1.65-1.65 1.65H8.15c-1.1 0-1.65-.55-1.65-1.65V9.8c0-1.1.55-1.65 1.65-1.65h4.95c1.1 0 1.65.55 1.65 1.65v1.1l2.08-1.664a.412.412 0 0 1 .67.322v4.884Z"/></svg>
